dist/svg/static/time-short-large.svg

<svg xmlns="http://www.w3.org/2000/svg" width="48" height="48" viewBox="0 0 48 48"><g fill="none" stroke="currentColor" stroke-miterlimit="10"><path d="M41.5 24.5v-1c0-9.9-8.1-18-18-18H23"/><circle cx="23.5" cy="23.5" r="3"/><path d="M46 20l-4.5 4.5L37 20M23.5 40v3M7 14l2 2M31 38l2 2M13 40l2-2M14.5 7.5L16 10M38 31.5l2 1.5M6 33l2-1.5M4 23.5h3M25.6 21.4l5.9-6.9"/></g></svg>

<?xml version="1.0" encoding="UTF-8" standalone="no"?>
<svg width="48px" height="48px" viewBox="0 0 48 48" version="1.1" xmlns="http://www.w3.org/2000/svg" xmlns:xlink="http://www.w3.org/1999/xlink">
    <!-- Generator: sketchtool 46.2 (44496) - http://www.bohemiancoding.com/sketch -->
    <title>time-short-large</title>
    <desc>Created with sketchtool.</desc>
    <defs></defs>
    <g id="icons-published" stroke="none" stroke-width="1" fill="none" fill-rule="evenodd">
        <g id="briefing" transform="translate(-3168.000000, -2074.000000)"></g>
        <g id="time-short-large" stroke="#000000">
            <path d="M41.5,24.5 L41.5,23.5 C41.5,13.6 33.4,5.5 23.5,5.5 L23,5.5" id="Shape"></path>
            <circle id="Oval" cx="23.5" cy="23.5" r="3"></circle>
            <path d="M46,20 L41.5,24.5 L37,20 M23.5,40 L23.5,43 M7,14 L9,16 M31,38 L33,40 M13,40 L15,38 M14.5,7.5 L16,10 M38,31.5 L40,33 M6,33 L8,31.5 M4,23.5 L7,23.5 M25.6,21.4 L31.5,14.5" id="Shape"></path>
        </g>
    </g>
</svg>
